Adwaita++/apps/16/youtube.svg

<svg height="16" width="16" xmlns="http://www.w3.org/2000/svg">
  <path d="m7.9980469 2.1113281s-2.937718.000613-4.9335938.1503907h-.0117187-.0136719c-.1900136.023111-1.0476193.057354-1.7050781.7695312-.3179402.336533-.45456171.7508218-.55078128 1.0898438-.09670987.3407997-.13476562.625-.13476562.625l-.00195312.0078124s-.1404896 1.1949598-.14257813 2.4082032l-.00390625 1.7773437c-.00209778 1.2157319.14453125 2.4121089.14453125 2.4121089s.03805575.284201.13476563.625c.09621965.339111.23284102.751447.55078122 1.087891.6835794.740533 1.6589365.741173 1.8144531.771485l.0214844.007812h.0234375c1.2158514.120978 4.8027344.150391 4.8027344.150391h.0039063.0039062s2.940196-.008433 4.933594-.152344h.011718.013672c.189736-.023111 1.049358-.059307 1.707032-.771485.317972-.336444.454565-.748779.550781-1.08789.096706-.3408.134765-.625.134765-.625l.001954-.009766s.140489-1.194782.142578-2.4082029l.003906-1.7773437c.002133-1.2155546-.144531-2.4121094-.144531-2.4121094s-.03806-.2842003-.134766-.625c-.096217-.3390219-.232816-.7513576-.550781-1.0878906-.657729-.7127994-1.519941-.7481066-1.708984-.7714844h-.011719-.011719c-1.995782-.1497777-4.9316406-.1484375-4.9316406-.1484375zm-2.3828125 2.9414063 5.7695316 3.0097656-5.7695316 2.990234z" fill="#444" transform="matrix(.9999999575 0 0 .9999999575 -.00000027551 .00000819225)"/>
</svg>

<svg xmlns="http://www.w3.org/2000/svg" width="16" height="16" version="1.1">
 <defs>
  <style id="current-color-scheme" type="text/css">
   .ColorScheme-Text { color:#5c616c; } .ColorScheme-Highlight { color:#5294e2; } .ColorScheme-ButtonBackground { color:#808080; }
  </style>
 </defs>
 <g style="fill:#bc1414" transform="matrix(0.88888814,0,0,0.88888814,-1.7777251,-917.41033)">
  <path fill="#444" d="M 7.9980469 2.1113281 C 7.9980469 2.1113281 5.0603289 2.1119411 3.0644531 2.2617188 L 3.0527344 2.2617188 L 3.0390625 2.2617188 C 2.8490489 2.2848298 1.9914432 2.3190728 1.3339844 3.03125 C 1.0160442 3.367783 0.87942269 3.7820718 0.78320312 4.1210938 C 0.68649325 4.4618935 0.6484375 4.7460938 0.6484375 4.7460938 L 0.64648438 4.7539062 C 0.64648438 4.7539062 0.50599478 5.948866 0.50390625 7.1621094 L 0.5 8.9394531 C 0.49790222 10.155185 0.64453125 11.351562 0.64453125 11.351562 C 0.64453125 11.351562 0.682587 11.635763 0.77929688 11.976562 C 0.87551653 12.315673 1.0121379 12.728009 1.3300781 13.064453 C 2.0136575 13.804986 2.9890146 13.805626 3.1445312 13.835938 L 3.1660156 13.84375 L 3.1894531 13.84375 C 4.4053045 13.964728 7.9921875 13.994141 7.9921875 13.994141 L 7.9960938 13.994141 L 8 13.994141 C 8 13.994141 10.940196 13.985708 12.933594 13.841797 L 12.945312 13.841797 L 12.958984 13.841797 C 13.14872 13.818686 14.008342 13.78249 14.666016 13.070312 C 14.983988 12.733868 15.120581 12.321533 15.216797 11.982422 C 15.313503 11.641622 15.351562 11.357422 15.351562 11.357422 L 15.353516 11.347656 C 15.353516 11.347656 15.494005 10.152874 15.496094 8.9394531 L 15.5 7.1621094 C 15.502133 5.9465548 15.355469 4.75 15.355469 4.75 C 15.355469 4.75 15.317409 4.4657997 15.220703 4.125 C 15.124486 3.7859781 14.987887 3.3736424 14.669922 3.0371094 C 14.012193 2.32431 13.149981 2.2890028 12.960938 2.265625 L 12.949219 2.265625 L 12.9375 2.265625 C 10.941718 2.1158473 8.0058594 2.1171875 8.0058594 2.1171875 L 7.9980469 2.1113281 z M 5.6152344 5.0527344 L 11.384766 8.0625 L 5.6152344 11.052734 L 5.6152344 5.0527344 z" transform="matrix(1.1250009,0,0,1.1250009,1.9999424,1032.0875)"/>
 </g>
</svg>
